X:110
T: DEUTSCHES HERZ VERZAGE NICHT
N: F0229
O: Europa, Mitteleuropa, Deutschland
R: Vaterlands - Lied, national
M: 4/4
L: 1/8
K: G
Bc | d3Bc2A2 | B4z2
BB | A2d2e3^c | d4z2
Bc | d3dcBAG | e4z2
cc | B2d2c3A | G4z2

@@@ Tune index: 5541
